lib/brands/icons/grooveshark.svg

<svg xmlns="http://www.w3.org/2000/svg" fill="none" aria-hidden="true" viewBox="0 0 48 48"><g id="grooveshark-Icon"><circle id="bg" cx="16" cy="16" r="14" fill="#F8591A"/><path id="grooveshark" fill="white" d="M33.6731 27.3108C32.4257 26.7847 31.386 25.7152 30.6109 24.6321C29.7213 23.3884 28.8103 22.1662 27.8135 21.007C26.8762 19.9183 25.8794 18.8748 24.7967 17.932C23.7164 16.9905 22.5406 16.095 21.2456 15.4731C20.3776 15.0544 19.4833 14.7397 18.5579 14.4743C18.453 14.4451 18.1704 14.3168 18.087 14.4457C18.0357 14.5255 18.075 14.6747 18.0857 14.763C18.1084 14.955 18.1311 15.1465 18.1549 15.3377C18.4316 17.6344 18.5365 20.0589 17.8234 22.289C17.4406 23.4911 16.743 24.5895 15.8129 25.4409C15.0414 26.1457 13.9408 26.8597 12.8474 26.8086C9.68418 26.6749 11.1038 21.4545 11.7003 19.6963C13.492 14.5028 18.5297 10.9057 24.0001 10.9057C31.1282 10.9057 37.0506 16.9214 37.0046 24.0002C36.9878 26.1038 36.313 28.4242 33.6731 27.3108ZM39.8497 19.4156C37.8632 12.5345 31.5222 7.5 24.0001 7.5C16.4792 7.5 10.1371 12.5345 8.15045 19.4156C7.44132 21.8734 7.31354 24.4774 7.77689 26.9922C9.18453 34.6773 15.9102 40.5 24.0001 40.5C32.0914 40.5 38.8158 34.6773 40.2256 26.9922C40.687 24.477 40.557 21.8737 39.8497 19.4156Z"/></g></svg>

<svg xmlns="http://www.w3.org/2000/svg" fill="none" aria-hidden="true" viewBox="0 0 48 48"><circle cx="16" cy="16" r="14" fill="#F8591A"/><path fill="#fff" d="M33.673 27.31c-1.247-.525-2.287-1.595-3.062-2.678-.89-1.244-1.8-2.466-2.797-3.625-.938-1.089-1.935-2.132-3.017-3.075-1.08-.941-2.256-1.837-3.551-2.459a16.772 16.772 0 0 0-2.688-.999c-.105-.029-.388-.157-.471-.028-.051.08-.012.229-.001.317.022.192.045.383.069.575.277 2.296.381 4.72-.332 6.951a7.29 7.29 0 0 1-2.01 3.152c-.772.705-1.872 1.419-2.966 1.368-3.163-.134-1.743-5.355-1.147-7.113 1.792-5.193 6.83-8.79 12.3-8.79 7.128 0 13.05 6.015 13.005 13.094-.017 2.104-.692 4.424-3.332 3.31Zm6.177-7.894C37.863 12.534 31.522 7.5 24 7.5c-7.52 0-13.863 5.034-15.85 11.916a16.56 16.56 0 0 0-.373 7.576C9.185 34.677 15.91 40.5 24 40.5c8.091 0 14.816-5.823 16.226-13.508a16.613 16.613 0 0 0-.376-7.576Z"/></svg>
